build/img/location.svg

<svg width="24" height="24" viewBox="0 0 24 24" fill="none" xmlns="http://www.w3.org/2000/svg">
<path fill-rule="evenodd" clip-rule="evenodd" d="M5.07129 10.5188V10.5305C5.13856 12.4124 5.78957 14.2269 6.93426 15.7225L6.93905 15.7288C8.27985 17.5193 9.92523 19.06 11.8 20.2802C11.8285 20.2988 11.8558 20.3193 11.8815 20.3416C11.9493 20.4002 12.0498 20.4002 12.1176 20.3416C12.144 20.3187 12.1721 20.2977 12.2015 20.2787C13.4591 19.4668 14.6187 18.5123 15.6572 17.4343C17.4802 15.5097 18.8782 13.1363 18.9279 10.6493V10.5697L18.9279 10.5671C18.9408 6.74075 15.8495 3.62832 12.0231 3.61528C8.19711 3.60232 5.08496 6.693 5.07129 10.5188ZM3.57129 10.5149C3.58711 5.86015 7.37339 2.09952 12.0282 2.11528C16.6826 2.13115 20.443 5.9168 20.4279 10.5711V10.6566L20.4277 10.6708C20.3705 13.6934 18.6921 16.4122 16.744 18.4682L16.7398 18.4725C15.631 19.6239 14.3941 20.6444 13.0531 21.5142C12.4381 22.0096 11.5594 22.0093 10.9447 21.5132C8.93892 20.2015 7.17772 18.5493 5.7407 16.6311C4.40535 14.885 3.64721 12.7662 3.57173 10.5693C3.57144 10.5608 3.57129 10.5522 3.57129 10.5436L3.57129 10.5149Z" fill="#36373C"/>
<path fill-rule="evenodd" clip-rule="evenodd" d="M11.9992 8.95419C11.0542 8.95419 10.2882 9.72023 10.2882 10.6652C10.2882 11.6102 11.0542 12.3762 11.9992 12.3762C12.9441 12.3762 13.7102 11.6102 13.7102 10.6652C13.7102 9.72023 12.9441 8.95419 11.9992 8.95419ZM8.78816 10.6652C8.78816 8.89181 10.2258 7.45419 11.9992 7.45419C13.7725 7.45419 15.2102 8.89181 15.2102 10.6652C15.2102 12.4386 13.7725 13.8762 11.9992 13.8762C10.2258 13.8762 8.78816 12.4386 8.78816 10.6652Z" fill="#36373C"/>
</svg>

<svg width="24" height="24" fill="none" xmlns="http://www.w3.org/2000/svg"><path fill-rule="evenodd" clip-rule="evenodd" d="M5.071 10.519v.011a9.076 9.076 0 0 0 1.863 5.193l.005.006A19.066 19.066 0 0 0 11.8 20.28a.98.98 0 0 1 .082.062.18.18 0 0 0 .236 0 .746.746 0 0 1 .083-.063 19.437 19.437 0 0 0 3.456-2.845c1.823-1.924 3.221-4.298 3.27-6.785v-.082a6.928 6.928 0 0 0-13.856-.048Zm-1.5-.004a8.428 8.428 0 0 1 16.857.056v.1c-.058 3.022-1.736 5.741-3.684 7.797l-.004.005a20.931 20.931 0 0 1-3.687 3.041 1.68 1.68 0 0 1-2.108 0A20.568 20.568 0 0 1 5.74 16.63a10.576 10.576 0 0 1-2.17-6.087v-.03Z" fill="#36373C"/><path fill-rule="evenodd" clip-rule="evenodd" d="M12 8.954a1.711 1.711 0 1 0 0 3.422 1.711 1.711 0 0 0 0-3.422Zm-3.212 1.711a3.211 3.211 0 1 1 6.422 0 3.211 3.211 0 0 1-6.422 0Z" fill="#36373C"/></svg>
